X: 1255
T: Bert Jamieson's Beauty No 3
B: australian traditional tunes wiki
M:6/8
L:1/8
R: Jig
Q: 3/8=100
K:D
V:1 
|:"D"afd AFA|"G"Bcd "A7"A3|"D"afd AFA|"G"Bcd "A7"e3|
"D"afd AFA|"G"Bcd "D"AFA|"G"Bcd "A7"edc|"D"d3-d3:|
"D"D2F A2A|"G"BcB "D"A2F|D2 F AGF|"A7"G2E EGE|
"D"D2F A2A|"G"BcB "D"A2F|"A7"ABA G2E|"D"D3 D3|
"D"D2F A2A|"G"BcB "D"A2F|"A7"A2G E2G|"Bm"B2A F2A|
"D"D2F A2A|"G"BcB "D"A2F|"A7"ABA GFE|"D"DFAd3||
% abcbook-tune_id 6342d53aefc409f8ec3c6d00


% abcbook-boost 0
% abcbook-tablature 
% abcbook-transpose 
% abcbook-lastupdated 1665324356240
% abcbook-soundfonts 
% abcbook-repeats 1
% NFF Book 2009

